docs/img/hero/hero-btn-icon.svg

<svg width="45" height="45" viewBox="0 0 45 45" fill="none" xmlns="http://www.w3.org/2000/svg">
<path d="M28.125 31.875C27.7542 31.875 27.3916 31.985 27.0833 32.191C26.775 32.397 26.5346 32.6899 26.3927 33.0325C26.2508 33.3751 26.2137 33.7521 26.286 34.1158C26.3584 34.4795 26.537 34.8136 26.7992 35.0758C27.0614 35.3381 27.3955 35.5166 27.7592 35.589C28.1229 35.6613 28.4999 35.6242 28.8425 35.4823C29.1851 35.3404 29.478 35.1 29.684 34.7917C29.89 34.4834 30 34.1208 30 33.75C30 33.2527 29.8025 32.7758 29.4508 32.4242C29.0992 32.0725 28.6223 31.875 28.125 31.875ZM16.875 31.875H11.25C10.7527 31.875 10.2758 32.0725 9.92418 32.4242C9.57254 32.7758 9.375 33.2527 9.375 33.75C9.375 34.2473 9.57254 34.7242 9.92418 35.0758C10.2758 35.4275 10.7527 35.625 11.25 35.625H16.875C17.3723 35.625 17.8492 35.4275 18.2008 35.0758C18.5525 34.7242 18.75 34.2473 18.75 33.75C18.75 33.2527 18.5525 32.7758 18.2008 32.4242C17.8492 32.0725 17.3723 31.875 16.875 31.875ZM33.75 31.875C33.3792 31.875 33.0166 31.985 32.7083 32.191C32.4 32.397 32.1596 32.6899 32.0177 33.0325C31.8758 33.3751 31.8387 33.7521 31.911 34.1158C31.9834 34.4795 32.1619 34.8136 32.4242 35.0758C32.6864 35.3381 33.0205 35.5166 33.3842 35.589C33.7479 35.6613 34.1249 35.6242 34.4675 35.4823C34.8101 35.3404 35.103 35.1 35.309 34.7917C35.515 34.4834 35.625 34.1208 35.625 33.75C35.625 33.2527 35.4275 32.7758 35.0758 32.4242C34.7242 32.0725 34.2473 31.875 33.75 31.875ZM28.125 20.625C27.7542 20.625 27.3916 20.735 27.0833 20.941C26.775 21.147 26.5346 21.4399 26.3927 21.7825C26.2508 22.1251 26.2137 22.5021 26.286 22.8658C26.3584 23.2295 26.537 23.5636 26.7992 23.8258C27.0614 24.088 27.3955 24.2666 27.7592 24.339C28.1229 24.4113 28.4999 24.3742 28.8425 24.2323C29.1851 24.0904 29.478 23.85 29.684 23.5417C29.89 23.2334 30 22.8708 30 22.5C30 22.0027 29.8025 21.5258 29.4508 21.1742C29.0992 20.8225 28.6223 20.625 28.125 20.625ZM16.875 20.625H11.25C10.7527 20.625 10.2758 20.8225 9.92418 21.1742C9.57254 21.5258 9.375 22.0027 9.375 22.5C9.375 22.9973 9.57254 23.4742 9.92418 23.8258C10.2758 24.1775 10.7527 24.375 11.25 24.375H16.875C17.3723 24.375 17.8492 24.1775 18.2008 23.8258C18.5525 23.4742 18.75 22.9973 18.75 22.5C18.75 22.0027 18.5525 21.5258 18.2008 21.1742C17.8492 20.8225 17.3723 20.625 16.875 20.625ZM33.75 9.375C33.3792 9.375 33.0166 9.48497 32.7083 9.69099C32.4 9.89702 32.1596 10.1899 32.0177 10.5325C31.8758 10.8751 31.8387 11.2521 31.911 11.6158C31.9834 11.9795 32.1619 12.3136 32.4242 12.5758C32.6864 12.838 33.0205 13.0166 33.3842 13.089C33.7479 13.1613 34.1249 13.1242 34.4675 12.9823C34.8101 12.8404 35.103 12.6 35.309 12.2917C35.515 11.9834 35.625 11.6208 35.625 11.25C35.625 10.7527 35.4275 10.2758 35.0758 9.92418C34.7242 9.57254 34.2473 9.375 33.75 9.375ZM33.75 20.625C33.3792 20.625 33.0166 20.735 32.7083 20.941C32.4 21.147 32.1596 21.4399 32.0177 21.7825C31.8758 22.1251 31.8387 22.5021 31.911 22.8658C31.9834 23.2295 32.1619 23.5636 32.4242 23.8258C32.6864 24.088 33.0205 24.2666 33.3842 24.339C33.7479 24.4113 34.1249 24.3742 34.4675 24.2323C34.8101 24.0904 35.103 23.85 35.309 23.5417C35.515 23.2334 35.625 22.8708 35.625 22.5C35.625 22.0027 35.4275 21.5258 35.0758 21.1742C34.7242 20.8225 34.2473 20.625 33.75 20.625ZM41.25 9.375C41.25 7.88316 40.6574 6.45242 39.6025 5.39752C38.5476 4.34263 37.1168 3.75 35.625 3.75H9.375C7.88316 3.75 6.45242 4.34263 5.39752 5.39752C4.34263 6.45242 3.75 7.88316 3.75 9.375V13.125C3.75827 14.5126 4.27915 15.8482 5.2125 16.875C4.27915 17.9018 3.75827 19.2374 3.75 20.625V24.375C3.75827 25.7626 4.27915 27.0982 5.2125 28.125C4.27915 29.1518 3.75827 30.4874 3.75 31.875V35.625C3.75 37.1168 4.34263 38.5476 5.39752 39.6025C6.45242 40.6574 7.88316 41.25 9.375 41.25H35.625C37.1168 41.25 38.5476 40.6574 39.6025 39.6025C40.6574 38.5476 41.25 37.1168 41.25 35.625V31.875C41.2417 30.4874 40.7209 29.1518 39.7875 28.125C40.7209 27.0982 41.2417 25.7626 41.25 24.375V20.625C41.2417 19.2374 40.7209 17.9018 39.7875 16.875C40.7209 15.8482 41.2417 14.5126 41.25 13.125V9.375ZM37.5 35.625C37.5 36.1223 37.3025 36.5992 36.9508 36.9508C36.5992 37.3025 36.1223 37.5 35.625 37.5H9.375C8.87772 37.5 8.40081 37.3025 8.04918 36.9508C7.69754 36.5992 7.5 36.1223 7.5 35.625V31.875C7.5 31.3777 7.69754 30.9008 8.04918 30.5492C8.40081 30.1975 8.87772 30 9.375 30H35.625C36.1223 30 36.5992 30.1975 36.9508 30.5492C37.3025 30.9008 37.5 31.3777 37.5 31.875V35.625ZM37.5 24.375C37.5 24.8723 37.3025 25.3492 36.9508 25.7008C36.5992 26.0525 36.1223 26.25 35.625 26.25H9.375C8.87772 26.25 8.40081 26.0525 8.04918 25.7008C7.69754 25.3492 7.5 24.8723 7.5 24.375V20.625C7.5 20.1277 7.69754 19.6508 8.04918 19.2992C8.40081 18.9475 8.87772 18.75 9.375 18.75H35.625C36.1223 18.75 36.5992 18.9475 36.9508 19.2992C37.3025 19.6508 37.5 20.1277 37.5 20.625V24.375ZM37.5 13.125C37.5 13.6223 37.3025 14.0992 36.9508 14.4508C36.5992 14.8025 36.1223 15 35.625 15H9.375C8.87772 15 8.40081 14.8025 8.04918 14.4508C7.69754 14.0992 7.5 13.6223 7.5 13.125V9.375C7.5 8.87772 7.69754 8.40081 8.04918 8.04918C8.40081 7.69754 8.87772 7.5 9.375 7.5H35.625C36.1223 7.5 36.5992 7.69754 36.9508 8.04918C37.3025 8.40081 37.5 8.87772 37.5 9.375V13.125ZM28.125 9.375C27.7542 9.375 27.3916 9.48497 27.0833 9.69099C26.775 9.89702 26.5346 10.1899 26.3927 10.5325C26.2508 10.8751 26.2137 11.2521 26.286 11.6158C26.3584 11.9795 26.537 12.3136 26.7992 12.5758C27.0614 12.838 27.3955 13.0166 27.7592 13.089C28.1229 13.1613 28.4999 13.1242 28.8425 12.9823C29.1851 12.8404 29.478 12.6 29.684 12.2917C29.89 11.9834 30 11.6208 30 11.25C30 10.7527 29.8025 10.2758 29.4508 9.92418C29.0992 9.57254 28.6223 9.375 28.125 9.375ZM16.875 9.375H11.25C10.7527 9.375 10.2758 9.57254 9.92418 9.92418C9.57254 10.2758 9.375 10.7527 9.375 11.25C9.375 11.7473 9.57254 12.2242 9.92418 12.5758C10.2758 12.9275 10.7527 13.125 11.25 13.125H16.875C17.3723 13.125 17.8492 12.9275 18.2008 12.5758C18.5525 12.2242 18.75 11.7473 18.75 11.25C18.75 10.7527 18.5525 10.2758 18.2008 9.92418C17.8492 9.57254 17.3723 9.375 16.875 9.375Z" fill="white"/>
</svg>

<svg width="45" height="45" fill="none" xmlns="http://www.w3.org/2000/svg"><path d="M28.125 31.875a1.875 1.875 0 100 3.75 1.875 1.875 0 000-3.75zm-11.25 0H11.25a1.875 1.875 0 100 3.75h5.625a1.875 1.875 0 100-3.75zm16.875 0a1.875 1.875 0 100 3.75 1.875 1.875 0 000-3.75zm-5.625-11.25a1.875 1.875 0 100 3.75 1.875 1.875 0 000-3.75zm-11.25 0H11.25a1.875 1.875 0 100 3.75h5.625a1.875 1.875 0 100-3.75zM33.75 9.375a1.875 1.875 0 100 3.75 1.875 1.875 0 000-3.75zm0 11.25a1.875 1.875 0 100 3.75 1.875 1.875 0 000-3.75zm7.5-11.25a5.625 5.625 0 00-5.625-5.625H9.375A5.625 5.625 0 003.75 9.375v3.75a5.625 5.625 0 001.463 3.75 5.625 5.625 0 00-1.463 3.75v3.75a5.625 5.625 0 001.463 3.75 5.625 5.625 0 00-1.463 3.75v3.75a5.625 5.625 0 005.625 5.625h26.25a5.625 5.625 0 005.625-5.625v-3.75a5.625 5.625 0 00-1.462-3.75 5.625 5.625 0 001.462-3.75v-3.75a5.625 5.625 0 00-1.462-3.75 5.625 5.625 0 001.462-3.75v-3.75zm-3.75 26.25a1.875 1.875 0 01-1.875 1.875H9.375A1.875 1.875 0 017.5 35.625v-3.75A1.875 1.875 0 019.375 30h26.25a1.875 1.875 0 011.875 1.875v3.75zm0-11.25a1.875 1.875 0 01-1.875 1.875H9.375A1.875 1.875 0 017.5 24.375v-3.75a1.875 1.875 0 011.875-1.875h26.25a1.875 1.875 0 011.875 1.875v3.75zm0-11.25A1.875 1.875 0 0135.625 15H9.375A1.875 1.875 0 017.5 13.125v-3.75A1.875 1.875 0 019.375 7.5h26.25A1.875 1.875 0 0137.5 9.375v3.75zm-9.375-3.75a1.875 1.875 0 100 3.75 1.875 1.875 0 000-3.75zm-11.25 0H11.25a1.875 1.875 0 100 3.75h5.625a1.875 1.875 0 100-3.75z" fill="#fff"/></svg>
